X: 623
T:Fred Finn's
R:Reel
C:??
M:C
L:1/8
N:Posted to the woodenflute mailing list January 2003
Z:Julien Coupey
K:D
~A3F ABde|fdec d2cd|B~E3 ~G3B|A~F3 DEFG|~A3F ABde|f2fe deed|
BAFA ~A2de|f2eg fedB:: ~f3a b2af|dfaf efde|f~b2a ~b3a|
f~b2a f~e3|fdad abaf|d2fd efdB|BAFB ABde|f2eg fede:|

